third_party/noto/noto_2/emoji_u1f579.svg

<svg enable-background="new 0 0 128 128" viewBox="0 0 128 128" xmlns="http://www.w3.org/2000/svg"><path d="m32.87 82.05h-13.02c-1.77 0-3.21 1.44-3.21 3.21v5.09c0 1.77 1.44 3.21 3.21 3.21h13.02c1.77 0 3.21-1.44 3.21-3.21v-5.09c0-1.78-1.44-3.21-3.21-3.21z" fill="#E53935"/><g opacity=".2"><path d="m32.87 84.05c0.67 0 1.21 0.54 1.21 1.21v5.09c0 0.67-0.54 1.21-1.21 1.21h-13.02c-0.67 0-1.21-0.54-1.21-1.21v-5.09c0-0.67 0.54-1.21 1.21-1.21h13.02m0-2h-13.02c-1.77 0-3.21 1.44-3.21 3.21v5.09c0 1.77 1.44 3.21 3.21 3.21h13.02c1.77 0 3.21-1.44 3.21-3.21v-5.09c0-1.78-1.44-3.21-3.21-3.21z" fill="#424242"/></g><path d="m32.02 112.04h-15.69c-2.21 0-4 1.79-4 4v4.1c0 2.21 1.79 4 4 4h16.35c2.08 0 4.01-1.08 5.1-2.85l3.24-5.25s-6.79-4-9-4z" fill="#0D47A1"/><path d="m112.02 112.04h-15.7c-2.21 0-9 4-9 4l3.24 5.25c1.09 1.77 3.02 2.85 5.1 2.85h16.35c2.21 0 4-1.79 4-4v-4.1c0.01-2.21-1.78-4-3.99-4z" fill="#0D47A1"/><g opacity=".2"><path d="m32.02 114.04c0.76 0.02 3.43 1.2 6.21 2.72l-2.15 3.48c-0.73 1.19-2.01 1.9-3.4 1.9h-16.35c-1.1 0-2-0.9-2-2v-4.1c0-1.1 0.9-2 2-2h15.69m0-2h-15.69c-2.21 0-4 1.79-4 4v4.1c0 2.21 1.79 4 4 4h16.35c2.08 0 4.01-1.08 5.1-2.85l3.24-5.25s-6.79-4-9-4z" fill="#424242"/></g><g opacity=".2"><path d="m112.02 114.04c1.1 0 2 0.9 2 2v4.1c0 1.1-0.9 2-2 2h-16.35c-1.4 0-2.67-0.71-3.4-1.9l-2.15-3.48c2.78-1.52 5.45-2.7 6.21-2.72h15.69m0-2h-15.7c-2.21 0-9 4-9 4l3.24 5.25c1.09 1.77 3.02 2.85 5.1 2.85h16.35c2.21 0 4-1.79 4-4v-4.1c0.01-2.21-1.78-4-3.99-4z" fill="#424242"/></g><rect x="58" y="43.68" width="12" height="65.36" fill="#eee"/><g opacity=".2"><rect x="59.5" y="45.18" width="9" height="62.36" fill="#eee"/><path d="m67 46.68v59.36h-6v-59.36h6m3-3h-12v65.36h12v-65.36z" fill="#424242"/></g><path d="m70.34 72.05h-12.68c-8.89 7.45-16.02 16.78-20.85 27.33l-0.28 0.62h54.94l-0.39-0.85c-4.81-10.46-11.89-19.73-20.74-27.1z" fill="#616161"/><g opacity=".2"><path d="m69.24 75.05c7.12 6.11 13.09 13.63 17.44 21.95h-45.35c4.37-8.31 10.34-15.82 17.44-21.95h10.47m1.1-3h-12.68c-8.89 7.45-16.02 16.78-20.85 27.33l-0.28 0.62h54.94l-0.39-0.85c-4.81-10.46-11.89-19.73-20.74-27.1z" fill="#616161"/></g><linearGradient id="b" x1="64" x2="64" y1="72.333" y2="119.69" gradientUnits="userSpaceOnUse"><stop stop-color="#42A5F5" offset=".1217"/><stop stop-color="#1E88E5" offset=".8858"/></linearGradient><path d="m116 88.42h-104c-4.42 0-8 3.58-8 8v15.49c0 4.42 3.58 8 8 8h104c4.42 0 8-3.58 8-8v-15.49c0-4.41-3.58-8-8-8z" fill="url(#b)"/><radialGradient id="a" cx="60.833" cy="23" r="23.552" gradientUnits="userSpaceOnUse"><stop stop-color="#EF5350" offset=".1713"/><stop stop-color="#E53935" offset=".5571"/></radialGradient><circle cx="64.31" cy="27.43" r="23" fill="url(#a)"/><g opacity=".2"><path d="m64.31 7.43c11.03 0 20 8.97 20 20s-8.97 20-20 20-20-8.97-20-20 8.97-20 20-20m0-3c-12.7 0-23 10.3-23 23s10.3 23 23 23 23-10.3 23-23-10.3-23-23-23z" fill="#424242"/></g><g opacity=".2"><path d="m116 91.42c2.76 0 5 2.24 5 5v15.49c0 2.76-2.24 5-5 5h-104c-2.76 0-5-2.24-5-5v-15.49c0-2.76 2.24-5 5-5h104m0-3h-104c-4.42 0-8 3.58-8 8v15.49c0 4.42 3.58 8 8 8h104c4.42 0 8-3.58 8-8v-15.49c0-4.41-3.58-8-8-8z" fill="#424242"/></g></svg>

<svg width="128" height="128" style="enable-background:new 0 0 128 128;" xmlns="http://www.w3.org/2000/svg" xmlns:xlink="http://www.w3.org/1999/xlink">
  <g id="图层_3">
    <path d="M32.87,82.05H19.85c-1.77,0-3.21,1.44-3.21,3.21v5.09c0,1.77,1.44,3.21,3.21,3.21h13.02 c1.77,0,3.21-1.44,3.21-3.21v-5.09C36.08,83.48,34.64,82.05,32.87,82.05z" style="fill:#E53935;"/>
    <g style="opacity:0.2;">
      <path d="M32.87,84.05c0.67,0,1.21,0.54,1.21,1.21v5.09c0,0.67-0.54,1.21-1.21,1.21H19.85 c-0.67,0-1.21-0.54-1.21-1.21v-5.09c0-0.67,0.54-1.21,1.21-1.21H32.87 M32.87,82.05H19.85c-1.77,0-3.21,1.44-3.21,3.21v5.09 c0,1.77,1.44,3.21,3.21,3.21h13.02c1.77,0,3.21-1.44,3.21-3.21v-5.09C36.08,83.48,34.64,82.05,32.87,82.05L32.87,82.05z" style="fill:#424242;"/>
    </g>
    <path d="M32.02,112.04H16.33c-2.21,0-4,1.79-4,4v4.1c0,2.21,1.79,4,4,4h16.35c2.08,0,4.01-1.08,5.1-2.85 l3.24-5.25C41.02,116.04,34.23,112.04,32.02,112.04z" style="fill:#0D47A1;"/>
    <path d="M112.02,112.04H96.32c-2.21,0-9,4-9,4l3.24,5.25c1.09,1.77,3.02,2.85,5.1,2.85h16.35 c2.21,0,4-1.79,4-4v-4.1C116.02,113.83,114.23,112.04,112.02,112.04z" style="fill:#0D47A1;"/>
    <g style="opacity:0.2;">
      <path d="M32.02,114.04c0.76,0.02,3.43,1.2,6.21,2.72l-2.15,3.48c-0.73,1.19-2.01,1.9-3.4,1.9H16.33 c-1.1,0-2-0.9-2-2v-4.1c0-1.1,0.9-2,2-2H32.02 M32.02,112.04H16.33c-2.21,0-4,1.79-4,4v4.1c0,2.21,1.79,4,4,4h16.35 c2.08,0,4.01-1.08,5.1-2.85l3.24-5.25C41.02,116.04,34.23,112.04,32.02,112.04L32.02,112.04z" style="fill:#424242;"/>
    </g>
    <g style="opacity:0.2;">
      <path d="M112.02,114.04c1.1,0,2,0.9,2,2v4.1c0,1.1-0.9,2-2,2H95.67c-1.4,0-2.67-0.71-3.4-1.9l-2.15-3.48 c2.78-1.52,5.45-2.7,6.21-2.72H112.02 M112.02,112.04H96.32c-2.21,0-9,4-9,4l3.24,5.25c1.09,1.77,3.02,2.85,5.1,2.85h16.35 c2.21,0,4-1.79,4-4v-4.1C116.02,113.83,114.23,112.04,112.02,112.04L112.02,112.04z" style="fill:#424242;"/>
    </g>
    <rect height="65.36" style="fill:#EEEEEE;" width="12" x="58" y="43.68"/>
    <g style="opacity:0.2;">
      <rect height="62.36" style="fill:#EEEEEE;" width="9" x="59.5" y="45.18"/>
      <path d="M67,46.68v59.36h-6V46.68H67 M70,43.68H58v65.36h12V43.68L70,43.68z" style="fill:#424242;"/>
    </g>
    <path d="M70.34,72.05H57.66l0,0c-8.89,7.45-16.02,16.78-20.85,27.33L36.53,100h54.94l-0.39-0.85 C86.27,88.69,79.19,79.42,70.34,72.05L70.34,72.05z" style="fill:#616161;"/>
    <g style="opacity:0.2;">
      <path d="M69.24,75.05C76.36,81.16,82.33,88.68,86.68,97H41.33c4.37-8.31,10.34-15.82,17.44-21.95H69.24 M70.34,72.05L70.34,72.05H57.66h0c-8.89,7.45-16.02,16.78-20.85,27.33L36.53,100h54.94l-0.39-0.85 C86.27,88.69,79.19,79.42,70.34,72.05L70.34,72.05z" style="fill:#616161;"/>
    </g>
    <linearGradient id="SVGID_1_" gradientUnits="userSpaceOnUse" x1="64" x2="64" y1="72.3333" y2="119.6854">
      <stop offset="0.1217" style="stop-color:#42A5F5"/>
      <stop offset="0.8858" style="stop-color:#1E88E5"/>
    </linearGradient>
    <path d="M116,88.42H12c-4.42,0-8,3.58-8,8v15.49c0,4.42,3.58,8,8,8h104c4.42,0,8-3.58,8-8V96.42 C124,92.01,120.42,88.42,116,88.42z" style="fill:url(#SVGID_1_);"/>
    <radialGradient id="SVGID_3_" cx="60.8333" cy="23" gradientUnits="userSpaceOnUse" r="23.5515">
      <stop offset="0.1713" style="stop-color:#EF5350"/>
      <stop offset="0.5571" style="stop-color:#E53935"/>
    </radialGradient>
    <circle cx="64.31" cy="27.43" r="23" style="fill:url(#SVGID_3_);"/>
    <g style="opacity:0.2;">
      <path d="M64.31,7.43c11.03,0,20,8.97,20,20s-8.97,20-20,20s-20-8.97-20-20S53.28,7.43,64.31,7.43 M64.31,4.43c-12.7,0-23,10.3-23,23s10.3,23,23,23c12.7,0,23-10.3,23-23S77.01,4.43,64.31,4.43L64.31,4.43z" style="fill:#424242;"/>
    </g>
    <g style="opacity:0.2;">
      <path d="M116,91.42c2.76,0,5,2.24,5,5v15.49c0,2.76-2.24,5-5,5H12c-2.76,0-5-2.24-5-5V96.42 c0-2.76,2.24-5,5-5H116 M116,88.42H12c-4.42,0-8,3.58-8,8v15.49c0,4.42,3.58,8,8,8h104c4.42,0,8-3.58,8-8V96.42 C124,92.01,120.42,88.42,116,88.42L116,88.42z" style="fill:#424242;"/>
    </g>
  </g>
  <g id="Layer_2_x5F_复制" style="display:none;">
    <g style="display:inline;opacity:0.3;">
      <g style="opacity:0.6;">
        <circle cx="64" cy="64" r="28" style="opacity:0.61;fill:none;stroke:#000000;stroke-width:0.2625;stroke-miterlimit:10;"/>
        <line style="opacity:0.61;fill:none;stroke:#000000;stroke-width:0.25;stroke-miterlimit:10;" x1="84" x2="84" y1="0" y2="128"/>
        <line style="opacity:0.61;fill:none;stroke:#000000;stroke-width:0.25;stroke-miterlimit:10;" x1="44" x2="44" y1="0" y2="128"/>
        <line style="opacity:0.61;fill:none;stroke:#000000;stroke-width:0.25;stroke-miterlimit:10;" x1="64" x2="64" y1="0" y2="128"/>
        <line style="opacity:0.61;fill:none;stroke:#000000;stroke-width:0.25;stroke-miterlimit:10;" x1="128" x2="0" y1="64" y2="64"/>
        <line style="opacity:0.61;fill:none;stroke:#000000;stroke-width:0.25;stroke-miterlimit:10;" x1="128" x2="0" y1="44" y2="44"/>
        <line style="opacity:0.61;fill:none;stroke:#000000;stroke-width:0.25;stroke-miterlimit:10;" x1="128" x2="0" y1="83.75" y2="83.75"/>
        <line style="opacity:0.61;fill:none;stroke:#000000;stroke-width:0.25;stroke-miterlimit:10;" x1="128" x2="0" y1="128" y2="0"/>
        <line style="opacity:0.61;fill:none;stroke:#000000;stroke-width:0.25;stroke-miterlimit:10;" x1="0" x2="128" y1="128" y2="0"/>
        <g style="opacity:0.61;">
          <path d="M64,4.26c32.94,0,59.74,26.8,59.74,59.74S96.94,123.74,64,123.74S4.26,96.94,4.26,64S31.06,4.26,64,4.26 M64,4 C30.86,4,4,30.86,4,64c0,33.14,26.86,60,60,60c33.14,0,60-26.86,60-60C124,30.86,97.14,4,64,4L64,4z"/>
        </g>
        <path d="M107.97,115.97H20.03 c-4.42,0-8.03-3.61-8.03-8.03V20.03c0-4.42,3.61-8.03,8.03-8.03h87.94c4.42,0,8.03,3.61,8.03,8.03v87.91 C116,112.36,112.39,115.97,107.97,115.97z" style="opacity:0.61;fill:none;stroke:#000000;stroke-width:0.2578;stroke-miterlimit:10;"/>
        <path d="M99.75,124H28 c-4.4,0-8-3.6-8-8V12c0-4.4,3.6-8,8-8h71.75c4.4,0,8,3.6,8,8v104C107.75,120.4,104.15,124,99.75,124z" style="opacity:0.61;fill:none;stroke:#000000;stroke-width:0.2567;stroke-miterlimit:10;"/>
        <path d="M113.77,108H14.23 C8.6,108,4,103.4,4,97.77V30.28c0-5.63,4.6-10.23,10.23-10.23h99.54c5.63,0,10.23,4.6,10.23,10.23v67.48 C124,103.4,119.4,108,113.77,108z" style="opacity:0.61;fill:none;stroke:#000000;stroke-width:0.2627;stroke-miterlimit:10;"/>
      </g>
      <g>
        <g style="opacity:0.2;">
          <defs>
            <rect id="SVGID_2_" height="128" style="opacity:0.2;" width="128"/>
          </defs>
          <clipPath id="SVGID_4_">
            <use style="overflow:visible;" xlink:href="#SVGID_2_"/>
          </clipPath>
          <g style="clip-path:url(#SVGID_4_);">
            <g>
              <line style="fill:none;stroke:#000000;stroke-width:0.25;stroke-miterlimit:10;" x1="-28" x2="-28" y1="160" y2="-32"/>
              <line style="fill:none;stroke:#000000;stroke-width:0.25;stroke-miterlimit:10;" x1="-24" x2="-24" y1="160" y2="-32"/>
              <line style="fill:none;stroke:#000000;stroke-width:0.25;stroke-miterlimit:10;" x1="-20" x2="-20" y1="160" y2="-32"/>
              <line style="fill:none;stroke:#000000;stroke-width:0.25;stroke-miterlimit:10;" x1="-16" x2="-16" y1="160" y2="-32"/>
              <line style="fill:none;stroke:#000000;stroke-width:0.25;stroke-miterlimit:10;" x1="-12" x2="-12" y1="160" y2="-32"/>
              <line style="fill:none;stroke:#000000;stroke-width:0.25;stroke-miterlimit:10;" x1="-8" x2="-8" y1="160" y2="-32"/>
              <line style="fill:none;stroke:#000000;stroke-width:0.25;stroke-miterlimit:10;" x1="-4" x2="-4" y1="160" y2="-32"/>
              <line style="fill:none;stroke:#000000;stroke-width:0.25;stroke-miterlimit:10;" x1="0" x2="0" y1="160" y2="-32"/>
              <line style="fill:none;stroke:#000000;stroke-width:0.25;stroke-miterlimit:10;" x1="4" x2="4" y1="160" y2="-32"/>
              <line style="fill:none;stroke:#000000;stroke-width:0.25;stroke-miterlimit:10;" x1="8" x2="8" y1="160" y2="-32"/>
              <line style="fill:none;stroke:#000000;stroke-width:0.25;stroke-miterlimit:10;" x1="12" x2="12" y1="160" y2="-32"/>
              <line style="fill:none;stroke:#000000;stroke-width:0.25;stroke-miterlimit:10;" x1="16" x2="16" y1="160" y2="-32"/>
              <line style="fill:none;stroke:#000000;stroke-width:0.25;stroke-miterlimit:10;" x1="20" x2="20" y1="160" y2="-32"/>
              <line style="fill:none;stroke:#000000;stroke-width:0.25;stroke-miterlimit:10;" x1="24" x2="24" y1="160" y2="-32"/>
              <line style="fill:none;stroke:#000000;stroke-width:0.25;stroke-miterlimit:10;" x1="28" x2="28" y1="160" y2="-32"/>
              <line style="fill:none;stroke:#000000;stroke-width:0.25;stroke-miterlimit:10;" x1="32" x2="32" y1="160" y2="-32"/>
              <line style="fill:none;stroke:#000000;stroke-width:0.25;stroke-miterlimit:10;" x1="36" x2="36" y1="160" y2="-32"/>
              <line style="fill:none;stroke:#000000;stroke-width:0.25;stroke-miterlimit:10;" x1="40" x2="40" y1="160" y2="-32"/>
              <line style="fill:none;stroke:#000000;stroke-width:0.25;stroke-miterlimit:10;" x1="44" x2="44" y1="160" y2="-32"/>
              <line style="fill:none;stroke:#000000;stroke-width:0.25;stroke-miterlimit:10;" x1="48" x2="48" y1="160" y2="-32"/>
              <line style="fill:none;stroke:#000000;stroke-width:0.25;stroke-miterlimit:10;" x1="52" x2="52" y1="160" y2="-32"/>
              <line style="fill:none;stroke:#000000;stroke-width:0.25;stroke-miterlimit:10;" x1="56" x2="56" y1="160" y2="-32"/>
              <line style="fill:none;stroke:#000000;stroke-width:0.25;stroke-miterlimit:10;" x1="60" x2="60" y1="160" y2="-32"/>
              <line style="fill:none;stroke:#000000;stroke-width:0.25;stroke-miterlimit:10;" x1="64" x2="64" y1="160" y2="-32"/>
              <line style="fill:none;stroke:#000000;stroke-width:0.25;stroke-miterlimit:10;" x1="68" x2="68" y1="160" y2="-32"/>
              <line style="fill:none;stroke:#000000;stroke-width:0.25;stroke-miterlimit:10;" x1="72" x2="72" y1="160" y2="-32"/>
              <line style="fill:none;stroke:#000000;stroke-width:0.25;stroke-miterlimit:10;" x1="76" x2="76" y1="160" y2="-32"/>
              <line style="fill:none;stroke:#000000;stroke-width:0.25;stroke-miterlimit:10;" x1="80" x2="80" y1="160" y2="-32"/>
              <line style="fill:none;stroke:#000000;stroke-width:0.25;stroke-miterlimit:10;" x1="84" x2="84" y1="160" y2="-32"/>
              <line style="fill:none;stroke:#000000;stroke-width:0.25;stroke-miterlimit:10;" x1="88" x2="88" y1="160" y2="-32"/>
              <line style="fill:none;stroke:#000000;stroke-width:0.25;stroke-miterlimit:10;" x1="92" x2="92" y1="160" y2="-32"/>
              <line style="fill:none;stroke:#000000;stroke-width:0.25;stroke-miterlimit:10;" x1="96" x2="96" y1="160" y2="-32"/>
              <line style="fill:none;stroke:#000000;stroke-width:0.25;stroke-miterlimit:10;" x1="100" x2="100" y1="160" y2="-32"/>
              <line style="fill:none;stroke:#000000;stroke-width:0.25;stroke-miterlimit:10;" x1="104" x2="104" y1="160" y2="-32"/>
              <line style="fill:none;stroke:#000000;stroke-width:0.25;stroke-miterlimit:10;" x1="108" x2="108" y1="160" y2="-32"/>
              <line style="fill:none;stroke:#000000;stroke-width:0.25;stroke-miterlimit:10;" x1="112" x2="112" y1="160" y2="-32"/>
              <line style="fill:none;stroke:#000000;stroke-width:0.25;stroke-miterlimit:10;" x1="116" x2="116" y1="160" y2="-32"/>
              <line style="fill:none;stroke:#000000;stroke-width:0.25;stroke-miterlimit:10;" x1="120" x2="120" y1="160" y2="-32"/>
              <line style="fill:none;stroke:#000000;stroke-width:0.25;stroke-miterlimit:10;" x1="124" x2="124" y1="160" y2="-32"/>
              <line style="fill:none;stroke:#000000;stroke-width:0.25;stroke-miterlimit:10;" x1="128" x2="128" y1="160" y2="-32"/>
              <line style="fill:none;stroke:#000000;stroke-width:0.25;stroke-miterlimit:10;" x1="132" x2="132" y1="160" y2="-32"/>
              <line style="fill:none;stroke:#000000;stroke-width:0.25;stroke-miterlimit:10;" x1="136" x2="136" y1="160" y2="-32"/>
              <line style="fill:none;stroke:#000000;stroke-width:0.25;stroke-miterlimit:10;" x1="137" x2="137" y1="166.05" y2="-25.95"/>
              <line style="fill:none;stroke:#000000;stroke-width:0.25;stroke-miterlimit:10;" x1="144" x2="144" y1="160" y2="-32"/>
              <line style="fill:none;stroke:#000000;stroke-width:0.25;stroke-miterlimit:10;" x1="148" x2="148" y1="160" y2="-32"/>
              <line style="fill:none;stroke:#000000;stroke-width:0.25;stroke-miterlimit:10;" x1="152" x2="152" y1="160" y2="-32"/>
              <line style="fill:none;stroke:#000000;stroke-width:0.25;stroke-miterlimit:10;" x1="156" x2="156" y1="160" y2="-32"/>
            </g>
            <g>
              <line style="fill:none;stroke:#000000;stroke-width:0.25;stroke-miterlimit:10;" x1="-32" x2="160" y1="-28" y2="-28"/>
              <line style="fill:none;stroke:#000000;stroke-width:0.25;stroke-miterlimit:10;" x1="-32" x2="160" y1="-24" y2="-24"/>
              <line style="fill:none;stroke:#000000;stroke-width:0.25;stroke-miterlimit:10;" x1="-32" x2="160" y1="-20" y2="-20"/>
              <line style="fill:none;stroke:#000000;stroke-width:0.25;stroke-miterlimit:10;" x1="-32" x2="160" y1="-16" y2="-16"/>
              <line style="fill:none;stroke:#000000;stroke-width:0.25;stroke-miterlimit:10;" x1="-32" x2="160" y1="-12" y2="-12"/>
              <line style="fill:none;stroke:#000000;stroke-width:0.25;stroke-miterlimit:10;" x1="-32" x2="160" y1="-8" y2="-8"/>
              <line style="fill:none;stroke:#000000;stroke-width:0.25;stroke-miterlimit:10;" x1="-32" x2="160" y1="-4" y2="-4"/>
              <line style="fill:none;stroke:#000000;stroke-width:0.25;stroke-miterlimit:10;" x1="-32" x2="160" y1="0" y2="0"/>
              <line style="fill:none;stroke:#000000;stroke-width:0.25;stroke-miterlimit:10;" x1="-32" x2="160" y1="4" y2="4"/>
              <line style="fill:none;stroke:#000000;stroke-width:0.25;stroke-miterlimit:10;" x1="-32" x2="160" y1="8" y2="8"/>
              <line style="fill:none;stroke:#000000;stroke-width:0.25;stroke-miterlimit:10;" x1="-32" x2="160" y1="12" y2="12"/>
              <line style="fill:none;stroke:#000000;stroke-width:0.25;stroke-miterlimit:10;" x1="-32" x2="160" y1="16" y2="16"/>
              <line style="fill:none;stroke:#000000;stroke-width:0.25;stroke-miterlimit:10;" x1="-32" x2="160" y1="20" y2="20"/>
              <line style="fill:none;stroke:#000000;stroke-width:0.25;stroke-miterlimit:10;" x1="-32" x2="160" y1="24" y2="24"/>
              <line style="fill:none;stroke:#000000;stroke-width:0.25;stroke-miterlimit:10;" x1="-32" x2="160" y1="28" y2="28"/>
              <line style="fill:none;stroke:#000000;stroke-width:0.25;stroke-miterlimit:10;" x1="-32" x2="160" y1="32" y2="32"/>
              <line style="fill:none;stroke:#000000;stroke-width:0.25;stroke-miterlimit:10;" x1="-32" x2="160" y1="36" y2="36"/>
              <line style="fill:none;stroke:#000000;stroke-width:0.25;stroke-miterlimit:10;" x1="-32" x2="160" y1="40" y2="40"/>
              <line style="fill:none;stroke:#000000;stroke-width:0.25;stroke-miterlimit:10;" x1="-32" x2="160" y1="44" y2="44"/>
              <line style="fill:none;stroke:#000000;stroke-width:0.25;stroke-miterlimit:10;" x1="-32" x2="160" y1="48" y2="48"/>
              <line style="fill:none;stroke:#000000;stroke-width:0.25;stroke-miterlimit:10;" x1="-32" x2="160" y1="52" y2="52"/>
              <line style="fill:none;stroke:#000000;stroke-width:0.25;stroke-miterlimit:10;" x1="-32" x2="160" y1="56" y2="56"/>
              <line style="fill:none;stroke:#000000;stroke-width:0.25;stroke-miterlimit:10;" x1="-32" x2="160" y1="60" y2="60"/>
              <line style="fill:none;stroke:#000000;stroke-width:0.25;stroke-miterlimit:10;" x1="-32" x2="160" y1="64" y2="64"/>
              <line style="fill:none;stroke:#000000;stroke-width:0.25;stroke-miterlimit:10;" x1="-32" x2="160" y1="68" y2="68"/>
              <line style="fill:none;stroke:#000000;stroke-width:0.25;stroke-miterlimit:10;" x1="-32" x2="160" y1="72" y2="72"/>
              <line style="fill:none;stroke:#000000;stroke-width:0.25;stroke-miterlimit:10;" x1="-32" x2="160" y1="76" y2="76"/>
              <line style="fill:none;stroke:#000000;stroke-width:0.25;stroke-miterlimit:10;" x1="-32" x2="160" y1="80" y2="80"/>
              <line style="fill:none;stroke:#000000;stroke-width:0.25;stroke-miterlimit:10;" x1="-32" x2="160" y1="84" y2="84"/>
              <line style="fill:none;stroke:#000000;stroke-width:0.25;stroke-miterlimit:10;" x1="-32" x2="160" y1="88" y2="88"/>
              <line style="fill:none;stroke:#000000;stroke-width:0.25;stroke-miterlimit:10;" x1="-32" x2="160" y1="92" y2="92"/>
              <line style="fill:none;stroke:#000000;stroke-width:0.25;stroke-miterlimit:10;" x1="-32" x2="160" y1="96" y2="96"/>
              <line style="fill:none;stroke:#000000;stroke-width:0.25;stroke-miterlimit:10;" x1="-32" x2="160" y1="100" y2="100"/>
              <line style="fill:none;stroke:#000000;stroke-width:0.25;stroke-miterlimit:10;" x1="-32" x2="160" y1="104" y2="104"/>
              <line style="fill:none;stroke:#000000;stroke-width:0.25;stroke-miterlimit:10;" x1="-32" x2="160" y1="108" y2="108"/>
              <line style="fill:none;stroke:#000000;stroke-width:0.25;stroke-miterlimit:10;" x1="-32" x2="160" y1="112" y2="112"/>
              <line style="fill:none;stroke:#000000;stroke-width:0.25;stroke-miterlimit:10;" x1="-32" x2="160" y1="116" y2="116"/>
              <line style="fill:none;stroke:#000000;stroke-width:0.25;stroke-miterlimit:10;" x1="-32" x2="160" y1="120" y2="120"/>
              <line style="fill:none;stroke:#000000;stroke-width:0.25;stroke-miterlimit:10;" x1="-32" x2="160" y1="124" y2="124"/>
              <line style="fill:none;stroke:#000000;stroke-width:0.25;stroke-miterlimit:10;" x1="-32" x2="160" y1="128" y2="128"/>
              <line style="fill:none;stroke:#000000;stroke-width:0.25;stroke-miterlimit:10;" x1="-32" x2="160" y1="132" y2="132"/>
              <line style="fill:none;stroke:#000000;stroke-width:0.25;stroke-miterlimit:10;" x1="-32" x2="160" y1="136" y2="136"/>
              <line style="fill:none;stroke:#000000;stroke-width:0.25;stroke-miterlimit:10;" x1="-32" x2="160" y1="140" y2="140"/>
              <line style="fill:none;stroke:#000000;stroke-width:0.25;stroke-miterlimit:10;" x1="-32" x2="160" y1="144" y2="144"/>
              <line style="fill:none;stroke:#000000;stroke-width:0.25;stroke-miterlimit:10;" x1="-32" x2="160" y1="148" y2="148"/>
              <line style="fill:none;stroke:#000000;stroke-width:0.25;stroke-miterlimit:10;" x1="-32" x2="160" y1="152" y2="152"/>
              <line style="fill:none;stroke:#000000;stroke-width:0.25;stroke-miterlimit:10;" x1="-32" x2="160" y1="156" y2="156"/>
            </g>
            <path d="M159.75-31.75v191.5h-191.5v-191.5H159.75 M160-32H-32v192h192V-32L160-32z"/>
          </g>
        </g>
        <g>
          <rect height="128" style="opacity:0.3;fill:#F44336;" width="4"/>
          <rect height="128" style="opacity:0.3;fill:#F44336;" width="4" x="124"/>
          <rect height="120" style="opacity:0.3;fill:#F44336;" transform="matrix(-1.836970e-16 1 -1 -1.836970e-16 66 -62)" width="4" x="62" y="-58"/>
          <rect height="120" style="opacity:0.3;fill:#F44336;" transform="matrix(-1.836970e-16 1 -1 -1.836970e-16 190 62)" width="4" x="62" y="66"/>
        </g>
      </g>
    </g>
  </g>
</svg>
